X:700
T:Mrs. General Campbell
R:Strathspey
B:The Athole Collection
M:C
L:1/8
K:A Minor
e|c>A A/A/A E<A A>c|B>G d>B e>de>d|c>A A/A/A E<A A>c|
B>G g>B A/A/A A:|
g|a>ga>b a>ba>e|g>be>g B>G d>B|a>ga>b ag|d>eg>B A/A/A A>g|
aG d>B|c>Ad>B d>eg>a|g<e g>B A/A/A A||
